packages/core/src/svgs/tokens/mono/AIPAD.svg

<svg width="24" height="24" viewBox="0 0 24 24" fill="none" xmlns="http://www.w3.org/2000/svg">
<path fill-rule="evenodd" clip-rule="evenodd" d="M12.7524 4.24777C12.8272 4.3461 12.9293 4.42005 13.0461 4.46033L14.3277 8.38617C14.1664 8.48402 14.0383 8.62828 13.9603 8.79996C13.8821 8.97164 13.8577 9.16302 13.8901 9.34885L11.0269 9.59274C10.9941 9.50376 10.9413 9.42339 10.8727 9.3579C10.8042 9.29226 10.7216 9.2431 10.6312 9.21422C10.5409 9.18534 10.4451 9.17731 10.3511 9.19088C10.2573 9.20459 10.1678 9.23931 10.0893 9.29269L5.44449 6.32323C5.44045 6.28081 5.43206 6.23892 5.41949 6.19819L12.7524 4.24777ZM14.0339 9.69893L11.0457 9.94909C11.0275 10.0334 10.9919 10.113 10.9413 10.1829C10.8908 10.2529 10.8262 10.3116 10.752 10.3553V11.3993C10.8828 11.4433 10.9956 11.5294 11.0723 11.6443C11.1492 11.7591 11.1858 11.8961 11.1766 12.0339C11.1672 12.1718 11.1125 12.3026 11.0211 12.406C10.9295 12.5096 10.8062 12.5798 10.6706 12.6059L10.4268 14.325L14.8277 13.4248C14.8535 13.3085 14.9119 13.2022 14.9961 13.118C15.0802 13.0338 15.1867 12.9753 15.303 12.9497L14.8028 10.1241C14.6496 10.1214 14.4995 10.0812 14.3655 10.0071C14.2314 9.93304 14.1175 9.82729 14.0339 9.69893ZM15.1529 10.0615L15.6717 12.9809C15.8081 13.0352 15.921 13.1357 15.9907 13.2649C16.0604 13.394 16.0825 13.5435 16.053 13.6873L18.7099 16.4004C18.7903 16.3782 18.8742 16.3723 18.9569 16.3831C19.0396 16.3938 19.1192 16.421 19.1913 16.463L20.9103 11.787C20.8533 11.7215 20.8105 11.6449 20.7847 11.5621C20.7589 11.4792 20.7506 11.3918 20.7604 11.3056L15.5092 9.81781C15.4091 9.924 15.2904 10.0052 15.1529 10.0678V10.0615ZM15.7029 9.49895L20.9042 10.968C20.9405 10.9251 20.9827 10.8871 21.0292 10.8555L20.5041 8.19863C20.3794 8.14347 20.2762 8.04906 20.2102 7.92983L15.7343 9.35512C15.7276 9.40384 15.7172 9.45183 15.7029 9.49895ZM15.728 8.9801L20.0851 7.586L13.565 4.41657C13.5219 4.44294 13.4757 4.46393 13.4274 4.47907L14.659 8.26115C14.8953 8.22177 15.1377 8.27429 15.3365 8.40798C15.5353 8.54163 15.6754 8.74643 15.728 8.9801ZM10.3956 10.4366C10.2754 10.4285 10.1602 10.3858 10.0636 10.3137C9.96721 10.2417 9.89355 10.1432 9.85169 10.0303L3.21275 10.3366L3.19401 10.3804L6.53223 13.4748C6.58549 13.457 6.64226 13.4522 6.69775 13.4609C6.75323 13.4695 6.80582 13.4916 6.85105 13.5248L9.92666 12.0994C9.89836 11.9425 9.93104 11.7806 10.0183 11.6468C10.1055 11.5132 10.2404 11.4179 10.3956 11.3806V10.4366ZM9.83302 9.66144C9.84118 9.63154 9.85169 9.60236 9.86423 9.57392L5.35697 6.69831C5.28472 6.8191 5.17381 6.91197 5.04221 6.96189C4.91061 7.01181 4.76601 7.01585 4.63181 6.97336L3.13149 9.76778C3.18151 9.83021 3.21275 9.89278 3.23151 9.96776L9.83302 9.66144ZM13.8213 4.13525C13.8655 4.03989 13.8849 3.93492 13.8777 3.83007C13.8706 3.72522 13.837 3.62388 13.7803 3.5354C13.7237 3.44691 13.6455 3.37416 13.5533 3.32385C13.461 3.27354 13.3576 3.2473 13.2524 3.24756C13.1671 3.2474 13.0826 3.26473 13.0043 3.29847C12.9258 3.33219 12.8552 3.38163 12.7966 3.44371C12.7381 3.5058 12.6928 3.57921 12.6637 3.65944C12.6345 3.73967 12.6222 3.82501 12.6274 3.9102L5.20695 5.88563C5.08643 5.79062 4.93519 5.74324 4.782 5.75253C4.62881 5.76184 4.4844 5.82716 4.37627 5.93606C4.26814 6.04496 4.20385 6.18983 4.19563 6.34308C4.18742 6.49633 4.23588 6.64724 4.33176 6.76707L2.85017 9.54271C2.75561 9.50624 2.65361 9.49326 2.55293 9.50493C2.45224 9.5166 2.35593 9.55263 2.27226 9.60995C2.18859 9.66713 2.12009 9.74385 2.07266 9.83341C2.02523 9.92298 2.00029 10.0227 2 10.1241C2.00018 10.2361 2.03053 10.3461 2.08784 10.4425C2.14516 10.539 2.22734 10.6182 2.32577 10.6718C2.42422 10.7255 2.53528 10.7518 2.64735 10.7477C2.7594 10.7438 2.86833 10.7098 2.96271 10.6492L6.29468 13.7436C6.28359 13.796 6.28426 13.8502 6.29663 13.9025C6.30902 13.9545 6.33281 14.0033 6.36628 14.0451C6.39976 14.087 6.4421 14.1208 6.49025 14.1445C6.5384 14.1679 6.59116 14.1805 6.64475 14.1812C6.75103 14.1875 6.84479 14.1375 6.91357 14.0625L10.1268 14.7189L12.0771 16.7067C12.0241 16.8074 11.9994 16.9207 12.006 17.0345C12.0125 17.1481 12.05 17.2578 12.1143 17.3517C12.1787 17.4457 12.2674 17.5202 12.3711 17.5675C12.4746 17.6146 12.5893 17.6325 12.7023 17.6194L13.3899 19.7387C13.3231 19.823 13.2791 19.9231 13.2623 20.0294C13.2454 20.1356 13.2563 20.2444 13.2938 20.3453C13.3314 20.4461 13.3943 20.5355 13.4766 20.605C13.5588 20.6743 13.6576 20.7214 13.7632 20.7414C13.869 20.7613 13.9781 20.7539 14.08 20.7193C14.1818 20.6849 14.2731 20.6247 14.3451 20.5446C14.4168 20.4645 14.4669 20.3672 14.49 20.2622C14.5134 20.1572 14.509 20.0479 14.4777 19.9449L15.3528 19.0448C15.4525 19.1278 15.5754 19.1778 15.7047 19.188C15.8341 19.1981 15.9633 19.1678 16.0746 19.1011C16.1859 19.0344 16.2735 18.935 16.3258 18.8161C16.378 18.6973 16.3918 18.5653 16.3656 18.4384L18.5598 17.5382C18.6721 17.605 18.8024 17.6349 18.9325 17.6238C19.0628 17.6127 19.1862 17.5611 19.2854 17.4762C19.3847 17.3914 19.455 17.2776 19.4864 17.1507C19.5176 17.024 19.5084 16.8905 19.4601 16.7693L21.2229 11.9807C21.3087 12.0021 21.3979 12.0052 21.485 11.9897C21.5719 11.9741 21.6547 11.9403 21.7276 11.8904C21.8005 11.8405 21.8621 11.7758 21.9082 11.7003C21.9543 11.6249 21.9839 11.5406 21.995 11.453C22.0062 11.3653 21.9986 11.2763 21.9728 11.1919C21.947 11.1073 21.9035 11.0292 21.8453 10.9627C21.7871 10.8962 21.7155 10.8428 21.6351 10.8059C21.5549 10.7691 21.4677 10.7497 21.3793 10.7492H21.373L20.8728 8.23615C20.9736 8.21737 21.0681 8.17416 21.1482 8.11027C21.2283 8.04638 21.2914 7.96379 21.3321 7.86978C21.3727 7.77575 21.3898 7.67318 21.3814 7.57108C21.3731 7.46897 21.3399 7.37047 21.2846 7.28422C21.2293 7.19798 21.1538 7.12665 21.0643 7.07649C20.9751 7.02634 20.8747 6.9989 20.7723 6.99661C20.6699 6.99431 20.5685 7.01721 20.4771 7.0633C20.3856 7.1094 20.3069 7.17725 20.2478 7.26094L13.8213 4.13525ZM13.8776 19.5011C14.0208 19.5005 14.1598 19.5491 14.2714 19.6386L15.1466 18.7385C15.1107 18.612 15.1157 18.4777 15.1604 18.3543C15.2054 18.2307 15.2881 18.1245 15.3966 18.0507V14.1875C15.3477 14.1827 15.2995 14.1722 15.2529 14.1561L13.2086 16.7693C13.2576 16.892 13.2665 17.027 13.2339 17.1551C13.2013 17.283 13.129 17.3975 13.0275 17.4819L13.6963 19.5262C13.7552 19.5089 13.8163 19.5005 13.8776 19.5011ZM12.9774 16.4817L14.9529 13.9561C14.9131 13.9051 14.8814 13.8482 14.8591 13.7874L10.5769 14.6626L12.3273 16.4504C12.4281 16.3955 12.542 16.3692 12.6567 16.3747C12.7713 16.3803 12.8823 16.4173 12.9774 16.4817ZM15.753 17.9383C15.9162 17.9372 16.0731 18.0001 16.1905 18.1133L18.3035 17.2507C18.2573 17.1442 18.2416 17.027 18.2582 16.9122C18.2747 16.7975 18.3229 16.6895 18.3973 16.6005L15.8718 14.0187C15.8358 14.0524 15.7958 14.0817 15.753 14.1062V17.9383ZM10.0893 12.4246L7.21988 13.7562L10.0642 14.3374L10.3144 12.5747C10.2292 12.5415 10.1525 12.4903 10.0893 12.4246Z" fill="white"/>
</svg>

<svg xmlns="http://www.w3.org/2000/svg" width="24" height="24" fill="none" viewBox="0 0 24 24">
    <path fill="#fff" fill-rule="evenodd" d="M12.752 4.248a.63.63 0 0 0 .294.212l1.282 3.926a.94.94 0 0 0-.438.963l-2.863.244a.62.62 0 0 0-.676-.402.6.6 0 0 0-.262.102l-4.645-2.97a.6.6 0 0 0-.025-.125zm1.282 5.45-2.988.251a.62.62 0 0 1-.294.406V11.4a.625.625 0 0 1-.081 1.207l-.244 1.719 4.4-.9a.63.63 0 0 1 .476-.475l-.5-2.826a.94.94 0 0 1-.77-.425m1.119.364.519 2.919a.625.625 0 0 1 .381.706L18.71 16.4a.62.62 0 0 1 .481.063l1.72-4.676a.63.63 0 0 1-.15-.481l-5.252-1.488q-.15.157-.356.25zm.55-.563 5.201 1.469a.6.6 0 0 1 .125-.113L20.504 8.2a.63.63 0 0 1-.294-.27l-4.476 1.426a1 1 0 0 1-.031.144m.025-.519 4.357-1.394-6.52-3.17a.6.6 0 0 1-.138.063l1.232 3.782a.94.94 0 0 1 1.069.72m-5.332 1.457a.63.63 0 0 1-.544-.407l-6.64.307-.018.043 3.338 3.095a.35.35 0 0 1 .319.05l3.076-1.426a.625.625 0 0 1 .469-.718zm-.563-.776a1 1 0 0 1 .031-.087L5.357 6.698a.625.625 0 0 1-.725.275l-1.5 2.795c.05.062.08.125.1.2zm3.988-5.526a.624.624 0 0 0-.569-.887.624.624 0 0 0-.625.662l-7.42 1.976a.625.625 0 0 0-.875.881L2.85 9.543a.626.626 0 0 0-.85.581.625.625 0 0 0 .963.525l3.332 3.095a.363.363 0 0 0 .35.437c.106.007.2-.043.269-.118l3.213.656 1.95 1.988a.626.626 0 0 0 .625.912l.688 2.12a.625.625 0 1 0 1.088.206l.875-.9a.627.627 0 0 0 .973-.229.63.63 0 0 0 .04-.378l2.194-.9a.625.625 0 0 0 .9-.769l1.763-4.788a.63.63 0 0 0 .685-.28.625.625 0 0 0-.529-.952h-.006l-.5-2.513a.625.625 0 1 0-.625-.975zm.057 15.366c.143 0 .282.048.393.138l.876-.9a.63.63 0 0 1 .25-.688V14.19a.6.6 0 0 1-.144-.032l-2.044 2.613a.625.625 0 0 1-.181.713l.668 2.044a.6.6 0 0 1 .182-.025m-.9-3.02 1.975-2.525a.6.6 0 0 1-.094-.169l-4.282.876 1.75 1.787a.63.63 0 0 1 .65.032m2.775 1.457a.62.62 0 0 1 .438.175l2.113-.862a.63.63 0 0 1 .093-.65l-2.525-2.582a.6.6 0 0 1-.119.087zm-5.664-5.513-2.87 1.331 2.845.581.25-1.762a.6.6 0 0 1-.225-.15" clip-rule="evenodd"/>
</svg>
